!!!SOCIAL_FUNCTION:	misc songs
!!!PDT:	1936
!!!OTL: No_72_Arapaho_Hunting_Song.krn
!!!REG: Oklahoma and Montana
!!!LANG: Tone
!!!LING_GROUP: Algonquin
**kern	**kern
*staff2	*staff1
=1-	=1-
=	=
*clefF4	*clefF4
*k[b-e-]	*k[b-e-]
*M2/4	*M2/4
4GG/	8.F\L
.	16G\Jk
4GG/	(8G\L
.	8F\J)
=2	=2
4GG/	4F\
4GG/	4F\
=3	=3
2r	4F\
.	8D\
.	8r
=4	=4
2r	8.F\L
.	16G\Jk
.	(8G\L
.	8F\J)
=5	=5
2r	4F\
.	4F\
=6	=6
2r	4F\
.	8D\
.	8r
=7	=7
2r	4D\
.	4D\
=8	=8
2r	8.D\L
.	16D\Jk
.	4D\
=9	=9
*M3/4	*M3/4
2.r	4D\
.	4D\
.	8BB-/
.	8r
=10	=10
*M2/4	*M2/4
2r	4D\
.	4D\
=11	=11
2r	8.D\L
.	16D\Jk
.	4D\
=12	=12
*M3/4	*M3/4
2.r	4D\
.	4D\
.	8BB-/
.	8r
=13:|!	=13:|!
*M2/4	*M2/4
2r	4D\
.	8D\
.	8r
==	==
*-	*-
